X: 307
T:Elzic's Farewell
C:Traditional
M:4/4
L:1/8
Q:1/4=220
K:C
P:A
G2|:"Am"A2Ac AGAc|"D"d2de dcAd-|dcd2 AcdA|1 "Am"edc2 \
A2G2:|2 "Am"edc2 A4| !
P:B
|:"Dm"de-e2 edcB|"C"ABce dcBG|"Am"A[a-e-][ae]A [a2e2]A_B|"G"Bg-ga ged2|!
"Am"de-e2 edcB|ABce "G"dcAG|"Am"A2Ac "C"AGAB|"G"cABG "Am"A4:|!
P:C
|:"Am"AcAG EGAB|c2d^d ege2|dedc AGAB|cABG A4:|!

